X:163
%%pagewidth 9in
%%vocalfont Baskerville10Pro 14
T:Last new scotch song
M:6/8
L:1/8
K:G
%%score 1 2
V:1 clef-treble
V:2 clef-bass octave=-1
V:1
E2[B,^DF][B,EG]2[=DFA]|(B>c)[Dd]D2[B,D]&x3[DG]2x|[CE]2E (B>A)(G/F/)&x3^D2x|E3G3|
w:Cold and raw the north* did blow Bleak in the morn-*ing* ear-ly
V:2
[E,G]2B,E2D|G2[B,G][DF]2[G,G]|[CG]2[CG][B,B]3|G3B3&E6|
V:1
E2[B,^DF][B,EG]2[=DFA]|(B>c)[Dd]D2[B,D]&[DG]2x4|[CE]2E (B>A)(G/F/)&x3^D2x|E3G2||G|
w:All the trees were hid* with snow; Dag-gled in win-*ter's* year-ly: As
V:2
[E,G]2B,E2D|G2[B,G][DF]2[G,G]|[CG]2[CG][B,B]3|G3B2&E3-E2||z|
V:1
[EG]2G (G>A)G|[FA]2A (A>B)A|[GB]2B (e>d)[Fc]|[GB]3d2G|
w:I came ri-*ding on the slough,* I met a far-*mer's daugh-ter, With
V:2
[EB]6|[Dd]6|[Gd]3 c>BA|G3B3|
V:1
[B,G]2G [EA]2A|[^DFB]2[DFB] (e>d)[EAc]&x3[EB]2x|(B>[A)F][EG] (F>E)D&[EG]2x^D2x|E3B3||
w:ro-sy cheeks and bon-ny brow,* Good faith,* made my* mouth wa-ter.
V:2
E3C3|B,2A, G,2A,|B,3 A>GF&x3B,3|[EG]6||

